frontend/public/assets/material-icons/folder-admin-open.svg

<svg xmlns="http://www.w3.org/2000/svg" viewBox="0 0 32 32">
  <path d="M28.96692,12H9.44152a2,2,0,0,0-1.89737,1.36754L4,24V10H28a2,2,0,0,0-2-2H15.1241a2,2,0,0,1-1.28038-.46357L12.5563,6.46357A2,2,0,0,0,11.27592,6H4A2,2,0,0,0,2,8V24a2,2,0,0,0,2,2H26l4.80523-11.21213A2,2,0,0,0,28.96692,12Z" style="fill: #546e7a"/>
  <path d="M25,10l-7,3.2726v4.90821C18,22.72264,20.98611,26.96858,25,28c4.0139-1.03142,7-5.27736,7-9.81919V13.2726L25,10m0,3.2726a2.45725,2.45725,0,1,1-2.33289,2.45411A2.3958,2.3958,0,0,1,25,13.2726m3.99024,9.81781A7.59534,7.59534,0,0,1,25,26.298a7.59663,7.59663,0,0,1-3.99024-3.20761,8.44271,8.44271,0,0,1-.67687-1.25125c0-1.3508,2.10815-2.45549,4.66711-2.45549s4.66579,1.08119,4.66579,2.45549A8.31478,8.31478,0,0,1,28.99024,23.09041Z" style="fill: #cfd8dc;fill-rule: evenodd"/>
</svg>

<svg xmlns="http://www.w3.org/2000/svg" viewBox="0 0 32 32"><path fill="#546e7a" d="M28.967 12H9.442a2 2 0 0 0-1.898 1.368L4 24V10h24a2 2 0 0 0-2-2H15.124a2 2 0 0 1-1.28-.464l-1.288-1.072A2 2 0 0 0 11.276 6H4a2 2 0 0 0-2 2v16a2 2 0 0 0 2 2h22l4.805-11.212A2 2 0 0 0 28.967 12"/><path fill="#cfd8dc" d="m25 10-7 3.273v4.908c0 4.542 2.986 8.788 7 9.819 4.014-1.031 7-5.277 7-9.82v-4.907zm0 3.273a2.457 2.457 0 1 1-2.333 2.454A2.396 2.396 0 0 1 25 13.273m3.99 9.817A7.6 7.6 0 0 1 25 26.298a7.6 7.6 0 0 1-3.99-3.208 8.4 8.4 0 0 1-.677-1.25c0-1.352 2.108-2.456 4.667-2.456s4.666 1.08 4.666 2.455a8.3 8.3 0 0 1-.676 1.251"/></svg>
